X:1
T:Captain Flash [1]
L:1/8
M:6/8
I:linebreak $
K:C
V:1 treble 
V:1
 c3 ecA | afd{c} B3 | cGF EFG | ABc dBG | A2 c B2 d | c2 g f/g/af | edc G2 B | c3 C3 ::$ %8
 ecA e2 ^f | g3 G3 | dBG d2 e | =f3 F3 | dBG def | edc BAG | (A/B/)cA (B/c/)dB | c3 C3 :| %16
